X: 38627
T: Stoortmont Shuffle
R: jig
M: 6/8
K: Eminor
|:BBB ABd|BeB dBB|BAB dBe|BdB A3|
BBB ABd|BeB dBB|Bc/B/A d c B|AB^F E2E:|
|:D2D D E/F/ G|F/G/ A G/A/ B2A|AGA d2A|BAG FGE|
D2D D E/F/ G|F/G/ A G/A/ B2 A|AGA d2 e|e dc B3:|

